src/assets/svg/accordion-item-icon-1.svg

<svg width="32" height="32" viewBox="0 0 32 32" fill="none" xmlns="http://www.w3.org/2000/svg">
<path d="M27.6133 16.5536C26.585 10.213 22.1762 5.55493 18.2503 6.66104C17.4246 6.8947 16.7703 7.43998 14.1375 10.1663C12.7665 11.584 12.3459 11.9267 12.1122 11.8488C9.5573 10.8518 7.95264 12.0981 7.96818 15.0893C7.96818 16.6783 8.04614 17.0989 8.56023 18.7036C8.70045 19.1242 6.92439 20.7755 4.69662 23.1279C2.90505 24.7637 4.79008 25.2623 7.48527 24.3899C12.1278 22.8943 11.4111 22.9566 13.0157 23.8602C15.6486 25.3402 19.076 25.8854 20.6339 25.0754C20.9455 24.9195 21.1169 24.5924 21.0857 24.2341C21.0857 24.2185 20.9455 22.6918 20.9455 22.7073C23.0798 21.8505 25.6503 20.9781 26.8655 20.1056C28.0806 19.2177 27.9092 18.3608 27.6133 16.5536ZM7.46973 22.941C7.29833 22.941 9.33917 20.6976 9.47939 20.5419C9.51052 20.7288 9.94676 21.4299 10.5699 21.8505C10.5855 21.9284 7.75017 22.941 7.46973 22.941ZM23.2511 19.5292C22.3787 19.7318 19.6368 20.8223 18.671 21.3675C17.9699 21.757 17.9387 21.8038 18.0322 22.3023C18.3749 24.2029 18.4684 24.0939 16.8171 23.6732C13.0781 22.7074 8.74717 15.3696 10.4609 12.8926C10.9438 12.1916 11.6137 13.0795 11.6605 14.4973C11.7072 15.9928 13.0313 18.4543 13.9661 19.0619C14.5114 19.4202 14.7917 18.984 14.6515 18.7036C12.8444 15.3697 13.1404 14.4817 13.265 13.9832C13.265 13.9832 17.2377 9.96379 17.5649 9.60545C18.7644 8.32801 19.8238 8.26569 20.9922 9.38738C23.1421 11.4749 24.7935 14.7932 25.2141 17.8311C25.3076 18.6413 24.6533 19.2177 23.2511 19.5292Z" fill="#006B99"/>
<path d="M23.3603 17.1614C21.5688 18.1117 18.0011 11.5062 19.6525 10.3066C20.4003 9.76136 19.2474 9.09145 18.6242 9.79255C17.5805 10.9765 18.5932 17.4574 22.8929 18.2052C23.6719 18.3454 24.3106 18.2052 24.373 17.6755C24.4353 17.2237 23.8433 16.8965 23.3603 17.1614Z" fill="#006B99"/>
</svg>

<svg xmlns="http://www.w3.org/2000/svg" width="32" height="32" fill="none">
  <path fill="#006B99" d="M27.61 16.55c-1.02-6.34-5.43-11-9.36-9.89-.83.23-1.48.78-4.11 3.5-1.37 1.42-1.8 1.77-2.03 1.69-2.55-1-4.16.25-4.14 3.24a9 9 0 0 0 .59 3.61c.14.42-1.64 2.08-3.86 4.43-1.8 1.63.09 2.13 2.79 1.26 4.64-1.5 3.92-1.43 5.53-.53 2.63 1.48 6.06 2.03 7.61 1.22a.84.84 0 0 0 .46-.85l-.14-1.52c2.13-.86 4.7-1.73 5.92-2.6 1.21-.9 1.04-1.75.74-3.56Zm-20.14 6.4c-.17 0 1.87-2.25 2-2.4.04.18.48.88 1.1 1.3.02.08-2.82 1.1-3.1 1.1Zm15.78-3.42c-.87.2-3.61 1.3-4.58 1.84-.7.39-.73.43-.64.93.34 1.9.44 1.8-1.21 1.37-3.74-.96-8.07-8.3-6.36-10.78.48-.7 1.15.19 1.2 1.6.05 1.5 1.37 3.96 2.3 4.57.55.36.83-.08.7-.36-1.82-3.33-1.52-4.22-1.4-4.72 0 0 3.98-4.02 4.3-4.37 1.2-1.28 2.26-1.34 3.43-.22 2.15 2.08 3.8 5.4 4.22 8.44.1.81-.56 1.39-1.96 1.7Z"/>
  <path fill="#006B99" d="M23.36 17.16c-1.8.95-5.36-5.65-3.7-6.85.74-.55-.41-1.22-1.04-.52-1.04 1.19-.03 7.67 4.27 8.42.78.14 1.42 0 1.48-.53.07-.46-.53-.78-1.01-.52Z"/>
</svg>
